X:1
T:Nova leggiadra stella
T:Dominico Lauro
T:Source : Symphonia Angelica---Anversa---P.Phalesio & G.Bellero---1590. Editor : André Vierendeels (22/01/14).
T:Nova leggiadra stella
C:Dominico Laura
%%score [ 1 2 3 4 ]
L:1/8
Q:1/4=86
M:4/4
K:F
V:1 treble nm="Canto" snm="C"
V:2 treble nm="Alto" snm="A"
V:3 treble-8 nm="Tenor" snm="T"
V:4 bass nm="Basso" snm="B"
V:1
 d4 d2 d2 | G3 A Bc de | f3 e d2 c2 | B2 AG A4 | B3 c d4 | z8 | d4 d2 d2 | G3 A Bc de | f2 e4 d2- | %9
w: No- va leg-|gia- * * * * *|* * * dra|stel- * * *|* * la,||no- va le-|gia- * * * * *|* dra stel-|
"^-natural" dc/B/ c2 d4 | z8 | z4 d4 | e2 e2 f4- | f2 e4 d2- |"^-natural" dc/B/ c2 d4- | d4 z4 | %16
w: * * * * la,||ch'ia|la ma- don-|* na bel-|* * * * la,|_|
 G4 d3 d | d2 e2 f3 e | dc d4 c2- | c2 B2 A4- | A2 f4 e2- | ed d3 c/B/ c2 | d8 | z8 | z2 G2 d3 d | %25
w: a lo splen-|dor al no- *|* * * te,|_ so- mi-|* gl'et a|_ le chio- * * *|me,||a lo splen-|
 d2 e2 f3 e | dc d2 c2 f2 | f3 e d2 c2 | c2 B2 A4 | A8 | z4 B4 | A4 A2 G2- | G2 F2 _E4 | %33
w: dor al no- *|* * * * me,|so- * mi gl'et|a le chio-|me,|tu|da ter- re-|* stre'hu- mo-|
 D2 A3 G AB | c4 c2 f2- | fe d2 c2 B2 | A4 G4 | z8 | z4 z2 d2- | dd ^c2 de fd | e4 f2 d2- | %41
w: re vi- * * *|* t'ac- qui-|* * * sti va-|lo- re,||el-|* la con le- * * *|* mie pe-|
 dc cB/c/ d3 c | B4 d4 | z2 d2 c2 A2 | B3 c de f2- | fe d4 B2 | A8 | A4 z2 d2- | dd ^c2 d2 B2 | %49
w: |* ne,|la sua bel-|ta _ _ _ _|_ _ _ man-|tie-|ne, el-|* la con le mie|
 A4 =B4 | z2 d2 c2 A2 | B3 c de f2- | f_e cd e2 e2 | d8- | d8 | d8 |] %56
w: pe- ne,|la sua bel-|ta _ _ _ _|_ _ _ _ _ man-|tie-||ne.|
V:2
 z8 | z2 G2 G2 G2 | D3 E FG A2- | AG G3 F/E/ F2 | G8 | z8 | z2 G2 A2 A2 | B3 A G2 B2 | A2 GF G3 F | %9
w: |No- va leg-|gia- * * * *|* dra stel- * * *|la,||ch'ia la mia|don- * * na|bel- * * * *|
 E4 D2 D2- | DD C2 D2 A2- | A2 A3 G F2 | A8 | z8 | G4 A2 A2 | B4 B2 A2- |"^#" AG G3 F/E/ F2 | %17
w: * la, ch'a|_ la mia don- na|_ bel- * *|la,||ch'ia la mia|don- na bel-||
 G2 B3 B A2 | B3 A G2 A2- | A2 G4 FE | F3 G AF G2- | GF ED E4 | D2 G2 A4 | A4 z2 D2 | G3 G G2 A2 | %25
w: la, a lo splen-|dor _ _ al|_ no- * *|||me, so- mo-|gli, a|lo splen- dor al|
 B4 A4 | A2 B3 A/G/ A2 | B6 A2- | A2 G2 E4 | ^F8 | z4 G4 | F4 F2 _E2- | E2 D2 C4 | A,4 F4 | %34
w: no- me,|so- mi- * * *|gl'et a|_ le chio-|me,|tu|da ter- re-|* stre'hu- mo-|re vi-|
 G2 A3 G FE | D2 B2 A2 G2- |"^#" GF/E/ F2 G2 D2 | E2 F4 D2- | D2 D2 A4 | A8- | A8 | z2 G3 G ^F2 | %42
w: t'ac- qui- * * *|* sti'e va- lo-|* * * * re, vi-|t'ac- qui- sti'e|_ va- lo-|re,|_|el- la con|
 GA BG A4 |"^#" B2 G3 F/E/ F2 | G4 z2 D2 | C2 A,2 B,3 C | DE F4 F2 | E4 F2 A2- | AA G2 A2 G2 | %49
w: le _ _ _ _|mie pe- * * *|ne, la|sua bel- ta _|_ _ _ man-|tie- ne, la|_ sua bel- ta man-|
 D4 D4 | z2 D2 E2 C2 | D3 E FG A2- | A2 A2 G4- | G4 F2 E2 | ^F8 | G8 |] %56
w: tie- ne,|la sua bel-|ta _ _ _ _|_ man- tie-|||ne.|
V:3
 z8 | z8 | z8 | d4 d2 d2 | G3 A Bc de | f3 e d2 c2 | B4 A4 | z8 | z8 | z4 z2 d2 | e2 e2 f4- | %11
w: |||No- va leg-|gia- * * * * *|* * * la|stel- la,|||ch'a|la mia son-|
 f2 e4 d2- |"^-natural" dc/B/ c2 d2 d2 | e2 e2 f2 g2 | e4 d2 d2 | B3 A Bc d2- | d2 c2 B2 A2 | %17
w: * na bel-|* * * * la, ch'ia|la mia don- na|bel- la, a|lo _ _ _ _|_ splen- dor al|
 B4 c4 | z2 f2 e4 | d2 G2 d3 d | d6 c2 | B4 A2 A2 | Bc de f2 ed | e4 f4 | B6 A2 | GA Bc d3 e | f8 | %27
w: no- me|ho- mi-|gli, a lo splen-|dor al|no- me ho-|mi- * * * * * *|* gli'et|a le|chio- * * * * *||
 d4 f2 f2- |"^-natural" fe d3 c/B/ c2 | d8 | d8 | d4 d2 B2- | B2 B2 G4 | F4 z2 d2 | e2 f3 e dc | %35
w: me, et a|_ le chio- * * *|me,|tu|da ter- re-|* stre'hu- mo-|re vi-|t'ac- qui- * * *|
 B4 f2 g2 | d4 d2 B2- | B2 c2 d3 c | BA B2 c2 d2 | e4 f2 d2- | dd ^c2 d2 f2 | e4 d2 d2 | %42
w: * sti'e va-|lo- re, vi-|* t'ac- qui- *|* * * sti'e va-|lo- re, el-|* la con le mie|pe- ne, la|
 _e2 d2 d4 | z2 d2 e2 c2 | d3 e fg a2- | a2 a2 g4 | f4 z2 d2- | dd ^c2 de fd | e4 ^f2 g2- | %49
w: sua bel- ta,|la sua bel-|ta _ _ _ _|_ man- tie-|ne, el-|* la con le _ _ _|_ mie pe-|
 g^f fe/f/ g2 de | fg a2 a4 | z4 z2 d2 | c2 A2 B2 c2 | B4 A2 G2 | A8 | G8 |] %56
w: |* * * ne,|la|sua be- ta man-|tie- * *||ne.|
V:4
 z8 | z8 | z8 | z8 | z2 G,2 G,2 G,2 | D,3 E, F,G, A,2- |"^#" A,G, G,3 F,/E,/ F,2 | G,8 | z4 G,4 | %9
w: ||||No- va leg-|gia- * * * *|* dra bel- * * *|la,|ch'a|
 A,2 A,2 B,3 A, | G,2 A,2 D,E, F,G, | A,B, CA, B,4 | A,4 z4 | z8 | z4 z2 D,2 | G,3 G, G,2 F,2 | %16
w: la mia don- *|* na bel- * * *||la,||a|lo splen- dor al|
 _E,4 D,2 D,2 | G,4 F,4 | z2 D,2 E,2 F,2 | G,4 D,4 | z8 | z8 | G,4 D3 D | D2 C2 B,4 | G,6 ^F,2 | %25
w: no- me so-|mi- gli|et a le|chio- me,|||a lo splen-|dor al no-|me so-|
 G,4 D,4- | D,4 z4 | B,,6 F,2- | F,2 G,2 A,4 | D,8 | z4 G,4 | D,4 D,2 _E,2- | E,2 B,,2 C,4 | D,8 | %34
w: mi- gli|_|et a|_ le chio-|me,|tu|da ter- re-|* stre'hu- mo-|re|
 z8 | z8 | z4 G,4- | G,2 A,2 B,3 A, | G,F, G,2 F,2 D,2 | A,4 D,4 | z8 | z8 | z2 G,3 G, ^F,2 | %43
w: ||vi-|* t'ac- qui- *|* * * sti'e va-|lo- re,|||el- la con|
 G,2 B,2 A,4 | G,2 G,2 F,2 D,2 | F,4 G,4 | D,3 E, F,3 G, | A,4 D,4 | z8 | z4 G,4 | %50
w: le mie pe-|ne, la sua bel-|ta man-|tie- * * *|* ne,||la|
 F,2 D,2 A,2 A,2 | G,4 D,2 D,2 | F,2 F,2 _E,2 C,2 | D,8- | D,8 | G,8 |] %56
w: sua bel- ta man-|tie- ne, la|sua bel- ta man-|tie-||ne.|

